svg/icon/prl.svg

<svg height="32" viewBox="0 0 32 32" width="32" xmlns="http://www.w3.org/2000/svg" xmlns:xlink="http://www.w3.org/1999/xlink"><defs><linearGradient id="a" x1="50%" x2="50%" y1="0%" y2="100%"><stop offset="0" stop-color="#fff" stop-opacity=".5"/><stop offset="1" stop-opacity=".5"/></linearGradient><circle id="b" cx="16" cy="15" r="15"/><filter id="c" height="111.7%" width="111.7%" x="-5.8%" y="-4.2%"><feOffset dy=".5" in="SourceAlpha" result="shadowOffsetOuter1"/><feGaussianBlur in="shadowOffsetOuter1" result="shadowBlurOuter1" stdDeviation=".5"/><feComposite in="shadowBlurOuter1" in2="SourceAlpha" operator="out" result="shadowBlurOuter1"/><feColorMatrix in="shadowBlurOuter1" values="0 0 0 0 0   0 0 0 0 0   0 0 0 0 0  0 0 0 0.199473505 0"/></filter><path id="d" d="m24.2810381 19.8666271c.0835534.861656-.1850319 1.7115234-1.0176335 2.2635914-.3991294.2646411-.8445377.370031-1.3226554.3697811-3.9597159-.0021245-7.9194736-.0011664-11.8792313-.0015413-.08702948 0-.1741846-.0028743-.26108844-.0075814-.86706997-.0469464-1.68735844-.675495-1.96771232-1.4964531-.12413637-.3635326-.14310863-.7350632-.12740312-1.1277967h.11894308c.76379051 0 1.52762291.0006665 2.2914134-.0004999.2318134-.0003332.3854761-.1692486.3328312-.3805283-.0193491-.0777302-.0791139-.1532943-.1382085-.212321-.98303944-.9819171-1.96888496-1.9610433-2.95410227-2.940711-.3007501-.2990907-.60133268-.5983896-.90245972-.8971054-.33827581-.3356647-.50161314-.7409367-.4414715-1.2126918.02952637-.2316911.10457778-.4600914.17929414-.6832847.4279857-1.2783834 1.08196326-2.431632 1.96792172-3.4513312 1.27101576-1.46287825 2.83080353-2.49703211 4.68116433-3.09388043 1.1943309-.38527709 2.4217482-.55156816 3.6727865-.4767955 2.9360096.17541376 5.3808344 1.37023512 7.3184759 3.57092583 1.0027656 1.1389189 1.7015144 2.4498774 2.1092295 3.9082568.1507729.5391963.008837 1.0239481-.3902925 1.4216804-.7500953.747435-1.5059283 1.4892882-2.2585365 2.2342655-.553211.5476525-1.105375 1.0963464-1.6573295 1.6452069-.1821002.181079-.1640912.4211013.0443524.5270328.0593459.0301173.134858.0398232.2030408.0400731.76044.002666 1.5209638.0017079 2.2814038.0017079zm-15.83882141.5410292c.01084727.3211267.09674596.6072207.28437449.8572405.31239312.4162692.73313335.6118028 1.25526836.6115529 4.00934526-.0017496 8.01873236-.0009581 12.02807766-.0011247.0468233-.0000417.0937724-.001458.1405538-.0040407.4717518-.0260767.8439934-.2366898 1.1223788-.6110114.1859533-.2500198.2729828-.5349473.2783855-.8526166zm10.26664781-7.7473728c.0291494.018287.0492944.0291176.0674709.0426141.9872695.7356464 1.6132703 1.6994432 1.8517428 2.9067197.1296647.6565831.1117814 1.310167-.0417976 1.9616265-.1408471.5976398-.3944806 1.1431678-.7500116 1.6432074-.0649161.0913101-.0959921.1917846-.0683922.3011318.0687692.2720559.3785657.3596169.5821929.1615006.2992423-.2911343.5931239-.5877673.8892671-.8821091 1.196425-1.1891145 2.3923893-2.3785206 3.5894007-3.5669686.2599996-.2581844.373875-.5661894.3095033-.9263895-.0278511-.1558771-.084726-.3074636-.1372033-.457967-.3943969-1.1316291-.9520892-2.1766552-1.6889918-3.1249559-.5628437-.72423257-1.2163187-1.3554055-1.9693457-1.88372957-.0352223-.02470206-.0700257-.07335636-.0746745-.11426263-.0522261-.45825854-.5157691-.73252218-.9436291-.55727505-.0371069.01516282-.0929766.01762053-.1278638.00079147-1.0618602-.5117033-2.1866681-.78692502-3.3590114-.86852928-.9286356-.06460858-1.8533343-.02170282-2.7699499.15654355-.765759.14892049-1.5010283.38619352-2.2022899.7261488-.0634921.03078384-.1113625.03086715-.1756923-.00058319-.4350218-.21290423-.9465608.09622555-.9588739.57843634-.0015078.06002641-.0224066.09430936-.0686855.13109168-.3059015.24293826-.6239905.47346301-.90983083.73827072-1.34468508 1.24555846-2.25853653 2.76467236-2.84504321 4.48773456-.14842757.4360975-.05088586.8094193.27436484 1.1323372 1.18725302 1.1789921 2.37312396 2.3594004 3.5596231 3.5391423.2984048.2967162.5957206.5945989.8964288.889024.1735145.1699152.4346449.1405893.5471801-.0611094.0772292-.1383815.0585501-.2760132-.0325837-.4032309-.4843999-.6763698-.768565-1.4293451-.852579-2.2535106-.0687273-.674537.0077899-1.3362021.2300125-1.9787055.0503832-.145588.1121583-.2873437.1713785-.4377638.482976.2841362.9484036.5579832 1.4119466.8306639-.6500407 1.6593283.1327639 3.238552 1.3818757 3.9205454 1.309756.7151099 2.9345018.4121036 3.9020033-.738729.4596899-.5467777.7041933-1.181533.7177629-1.8967263.0202287-1.0665206-.4208659-1.9164296-1.2499494-2.578678.2819453-.4729631.5598282-.9392196.8442446-1.4163067zm4.6649981 3.0390152c-.0263434-.1648748-.0500064-.3183358-.0754703-.4714219-.094233-.5673975-.2635175-1.1127589-.4920642-1.6401249-.0256314-.0591933-.0316623-.1058481-.0017171-.1678323.1686563-.348953-.0008795-.7605567-.3683466-.9065196-.3487462-.1385482-.753739.0512369-.8792575.4120203-.1238013.3557845.0822132.755433.4520256.8519085.1098549.028701.1642588.0797297.2056376.1810373.30431.7444775.4738039 1.5168228.4977181 2.3200354.0012984.0441971-.0149516.1019741-.044813.1319665-.4568001.4596331-.9171601.9157672-1.3769756 1.3724012-.0154962.0153711-.0341334.027618-.0420908.0339913.438833-2.1701984-.0945263-4.0511371-1.8373356-5.4666107-1.8112854-1.4710429-3.8290041-1.5827645-5.9477407-.6270907-.2070196-.3571592-.4218291-.7278567-.6471509-1.1166329.2307245-.1037236.4525282-.2112796.6802791-.304256.5855434-.2391892 1.196802-.37857043 1.8248131-.44971901.0806635-.00912269.1398.00404064.2023708.06798272.26335.26909829.6888228.26555749.9519216-.00574854.0533987-.05506934.103447-.07106527.1747291-.06340055 1.5322298.16529128 2.8625077.76734668 3.9841745 1.82070398.0900031.0845202.1754411.1739558.2623868.2616835.1552961.1567935.3255857.161209.4839392.0084978.3510496-.3384556.7008009-.6782443 1.0512223-1.0174081.028605-.0277013.0579638-.0546944.0980862-.0924765.1261048.1605842.2530053.3141285.3711527.4740462.6873151.9307218 1.2027491 1.9481716 1.5500713 3.0501415.0458601.145588.0150354.2686401-.0917202.3748631-.3077443.3063388-.6157818.6124694-.9240286.9183083-.0155799.0154544-.0343428.027743-.0618169.0496541zm-1.2654791-5.3094216c-.296897.2872187-.5942128.5748539-.8983553.8690292-.0266366-.0232858-.051556-.043614-.0747583-.0656917-.9552721-.9066862-2.0712849-1.52740348-3.3536505-1.84019899-.3528924-.08610312-.7173441-.12625958-1.0769794-.18399491-.0621938-.0099558-.1057505-.02320244-.1448258-.08322885-.267245-.41010411-.8596988-.40498041-1.133938.00245771-.0249194.03711557-.0798678.07110693-.124262.07598069-2.3131918.25389381-4.1290422 1.33774335-5.4598227 3.23188705-.03593422.051112-.07371121.0724815-.13536058.082604-.46605587.0763556-.70377451.5304902-.50957061.9602143.01511917.0334498.01382085.0853533-.00108892.1195113-.28035387.6420035-.46672596 1.3093339-.55517941 2.0037408-.0054027.0425725-.01465848.0847284-.02508694.1439634-.03425896-.0323668-.06026729-.0559441-.08514482-.0806462-.28667797-.2848859-.57084305-.5722712-.86078776-.8538247-.13389473-.1300086-.17770265-.2681402-.11433614-.4498856.67290795-1.9303012 1.74239056-3.5817565 3.40956218-4.81510971.0187629-.01387148.0392428-.02578511.0568749-.04098958.0605605-.05223673.1155088-.06723292.2045905-.04319736.3878215.10476504.7587647-.13609041.8382556-.52494993.0072036-.03507442.0397035-.07727203.0719522-.09330962.4319644-.21452881.8817284-.38390244 1.3458996-.51591056 1.0947371-.31129589 2.212844-.39223365 3.3428033-.31154582 1.0466154.07468935 2.0535691.31812749 3.0051975.76859634.0593041.0280762.0891236.05869342.0993845.12942544.0634922.43680566.5061782.68453438.921097.52395018.0312853-.01208026.0822131-.01291338.1075932.00458217.4084271.28159511.7843543.60184705 1.1319277.95509065.0065335.0066233.0096327.0165374.018009.0314503zm-3.664004 6.1792755c.0069523 1.3318699-1.090172 2.4292577-2.436323 2.4370473-1.3439312.0076648-2.4499762-1.085974-2.4560909-2.4286744-.0060728-1.332953 1.0888318-2.4261751 2.4376631-2.4339648 1.3477843-.007748 2.4477566 1.0791424 2.4547508 2.4255919zm-7.698587 1.2650577c-.218202-.2193609-.4243002-.4277247-.6316967-.6347554-.25999956-.2596007-.5222188-.5168686-.7800405-.7785521-.03082469-.0313254-.05779629-.0844369-.05649797-.1265512.02617585-.8336631.20111433-1.6352928.52887792-2.4038474.02387238-.0560275.05423637-.0807712.11220018-.0943094.44921957-.104765.65858447-.4974153.49922587-.9255565-.0108054-.0289926-.0108054-.0750642.0054027-.0988915.4978857-.7310226 1.1137931-1.34445 1.8557216-1.8311596.0026385-.0017079.0064078-.0017913.0203124-.005457.0870714.1490038.1761112.3003404.2642296.4522601.1855763.3199603.3706082.6402539.556017.9603393.1129541.195117.2586594.2378978.4517744.1216774.5099894-.3069637 1.0584678-.5107036 1.6461052-.6045131 1.0263867-.163875 2.0059082-.0152878 2.9343762.4535098.0087532.0044155.0160406.011747.0340496.0251603-.2816941.4729631-.5636395.9464678-.8383813 1.4078505-1.585461-.5953487-2.8950914-.240064-3.9538943 1.0765598-.4578052-.26914-.9234423-.5429037-1.4065857-.8269149.1262723-.1689571.2455923-.3317074.3685979-.4917084.0507183-.0659832.1088916-.1263845.16451-.1885771.0854799-.095559.0858149-.1505867-.0021778-.2400223-.0772711-.0785634-.155338-.1563769-.2337818-.2338156-.1057086-.1043485-.1576415-.1042235-.258073.0039157-.428949.461591-.767518.9817089-1.0117282 1.5613532-.3454794.8199166-.4798349 1.6744495-.3983337 2.5591413.0258827.2805121.0830089.5581498.1297904.8628641zm5.2482003-8.00951873c-.203711-.00212446-.3771836-.17658012-.375634-.37777899.0015496-.20115721.178624-.37565453.3797802-.37423823.202999.00141631.3760109.1760386.3747964.37832053-.0012146.20344829-.1759855.3757795-.3789426.37369669zm-4.598792-1.41504456c.2115427-.00158293.3812879.16158394.3827119.36790651.0013821.20299008-.1720487.3747381-.3783563.37469644-.2070615-.00008331-.3793614-.17149808-.3771836-.37532128.002136-.20332333.1670229-.36574039.372828-.36728167zm10.8011587 5.10026639c-.2110402.0003332-.3765135-.1638334-.3757596-.3727803.0007539-.203115.1653895-.3681148.3692261-.3700726.2106633-.0019995.3792358.1608758.3813299.368448.0021359.2075723-.16451.3740716-.3747964.3744049zm-1.6035161-5.10042884c.213218-.00024994.3751733.16108406.3742519.3727386-.0009633.20419811-.1645519.3681981-.3691424.36998931-.2091974.00179121-.3790682-.16345846-.3801572-.36986434-.0011308-.20944677.1630442-.37265529.3750477-.37286357zm-10.4176008 4.72863584c.0002931.2091135-.1653058.3726969-.37647164.3718221-.21162656-.0008747-.37467072-.165083-.37257665-.3753629.00205218-.2047396.16513823-.3662403.3711108-.3675316.20986749-.0012913.37764429.1634168.37793749.3710724z"/><filter id="e" height="121.9%" width="117.5%" x="-8.8%" y="-7.8%"><feOffset dy=".5" in="SourceAlpha" result="shadowOffsetOuter1"/><feGaussianBlur in="shadowOffsetOuter1" result="shadowBlurOuter1" stdDeviation=".5"/><feColorMatrix in="shadowBlurOuter1" values="0 0 0 0 0   0 0 0 0 0   0 0 0 0 0  0 0 0 0.204257246 0"/></filter></defs><g fill="none" fill-rule="evenodd"><use fill="#000" filter="url(#c)" xlink:href="#b"/><use fill="#1061e3" xlink:href="#b"/><use fill="url(#a)" xlink:href="#b"/><circle cx="16" cy="15" r="14.5" stroke="#000" stroke-opacity=".097"/><use fill="#000" filter="url(#e)" xlink:href="#d"/><use fill="#fff" xlink:href="#d"/></g></svg>

<svg xmlns="http://www.w3.org/2000/svg" xmlns:xlink="http://www.w3.org/1999/xlink" width="32" height="32" viewBox="0 0 32 32">
  <defs>
    <linearGradient id="prl-c" x1="50%" x2="50%" y1="0%" y2="100%">
      <stop offset="0%" stop-color="#FFF" stop-opacity=".5"/>
      <stop offset="100%" stop-opacity=".5"/>
    </linearGradient>
    <circle id="prl-b" cx="16" cy="15" r="15"/>
    <filter id="prl-a" width="111.7%" height="111.7%" x="-5.8%" y="-4.2%" filterUnits="objectBoundingBox">
      <feOffset dy=".5" in="SourceAlpha" result="shadowOffsetOuter1"/>
      <feGaussianBlur in="shadowOffsetOuter1" result="shadowBlurOuter1" stdDeviation=".5"/>
      <feComposite in="shadowBlurOuter1" in2="SourceAlpha" operator="out" result="shadowBlurOuter1"/>
      <feColorMatrix in="shadowBlurOuter1" values="0 0 0 0 0   0 0 0 0 0   0 0 0 0 0  0 0 0 0.199473505 0"/>
    </filter>
    <path id="prl-e" d="M24.2810381,19.8666271 C24.3645915,20.7282831 24.0960062,21.5781505 23.2634046,22.1302185 C22.8642752,22.3948596 22.4188669,22.5002495 21.9407492,22.4999996 C17.9810333,22.4978751 14.0212756,22.4988332 10.0615179,22.4984583 C9.97448842,22.4984583 9.8873333,22.495584 9.80042946,22.4908769 C8.93335949,22.4439305 8.11307102,21.8153819 7.83271714,20.9944238 C7.70858077,20.6308912 7.68960851,20.2593606 7.70531402,19.8666271 L7.8242571,19.8666271 C8.58804761,19.8666271 9.35188001,19.8672936 10.1156705,19.8661272 C10.3474839,19.865794 10.5011466,19.6968786 10.4485017,19.4855989 C10.4291526,19.4078687 10.3693878,19.3323046 10.3102932,19.2732779 C9.32725376,18.2913608 8.34140824,17.3122346 7.35619093,16.3325669 C7.05544083,16.0334762 6.75485825,15.7341773 6.45373121,15.4354615 C6.1154554,15.0997968 5.95211807,14.6945248 6.01225971,14.2227697 C6.04178608,13.9910786 6.11683749,13.7626783 6.19155385,13.539485 C6.61953955,12.2611016 7.27351711,11.107853 8.15947557,10.0881538 C9.43049133,8.62527555 10.9902791,7.59112169 12.8406399,6.99427337 C14.0349708,6.60899628 15.2623881,6.44270521 16.5134264,6.51747787 C19.449436,6.69289163 21.8942608,7.88771299 23.8319023,10.0884037 C24.8346679,11.2273226 25.5334167,12.5382811 25.9411318,13.9966605 C26.0919047,14.5358568 25.9499688,15.0206086 25.5508393,15.4183409 C24.800744,16.1657759 24.044911,16.9076291 23.2923028,17.6526064 C22.7390918,18.2002589 22.1869278,18.7489528 21.6349733,19.2978133 C21.4528731,19.4788923 21.4708821,19.7189146 21.6793257,19.8248461 C21.7386716,19.8549634 21.8141837,19.8646693 21.8823665,19.8649192 C22.6428065,19.8675852 23.4033303,19.8666271 24.1637703,19.8666271 L24.2810381,19.8666271 Z M8.44221669,20.4076563 C8.45306396,20.728783 8.53896265,21.014877 8.72659118,21.2648968 C9.0389843,21.681166 9.45972453,21.8766996 9.98185954,21.8764497 C13.9912048,21.8747001 18.0005919,21.8754916 22.0099372,21.875325 C22.0567605,21.8752833 22.1037096,21.873867 22.150491,21.8712843 C22.6222428,21.8452076 22.9944844,21.6345945 23.2728698,21.2602729 C23.4588231,21.0102531 23.5458526,20.7253256 23.5512553,20.4076563 L8.44221669,20.4076563 Z M18.7088645,12.6602835 C18.7380139,12.6785705 18.7581589,12.6894011 18.7763354,12.7028976 C19.7636049,13.438544 20.3896057,14.4023408 20.6280782,15.6096173 C20.7577429,16.2662004 20.7398596,16.9197843 20.5862806,17.5712438 C20.4454335,18.1688836 20.1918,18.7144116 19.836269,19.2144512 C19.7713529,19.3057613 19.7402769,19.4062358 19.7678768,19.515583 C19.836646,19.7876389 20.1464425,19.8751999 20.3500697,19.6770836 C20.649312,19.3859493 20.9431936,19.0893163 21.2393368,18.7949745 C22.4357618,17.60586 23.6317261,16.4164539 24.8287375,15.2280059 C25.0887371,14.9698215 25.2026125,14.6618165 25.1382408,14.3016164 C25.1103897,14.1457393 25.0535148,13.9941528 25.0010375,13.8436494 C24.6066406,12.7120203 24.0489483,11.6669942 23.3120457,10.7186935 C22.749202,9.99446093 22.095727,9.363288 21.3427,8.83496393 C21.3074777,8.81026187 21.2726743,8.76160757 21.2680255,8.7207013 C21.2157994,8.26244276 20.7522564,7.98817912 20.3243964,8.16342625 C20.2872895,8.17858907 20.2314198,8.18104678 20.1965326,8.16421772 C19.1346724,7.65251442 18.0098645,7.3772927 16.8375212,7.29568844 C15.9088856,7.23107986 14.9841869,7.27398562 14.0675713,7.45223199 C13.3018123,7.60115248 12.566543,7.83842551 11.8652814,8.17838079 C11.8017893,8.20916463 11.7539189,8.20924794 11.6895891,8.1777976 C11.2545673,7.96489337 10.7430283,8.27402315 10.7307152,8.75623394 C10.7292074,8.81626035 10.7083086,8.8505433 10.6620297,8.88732562 C10.3561282,9.13026388 10.0380392,9.36078863 9.75219887,9.62559634 C8.40751379,10.8711548 7.49366234,12.3902687 6.90715566,14.1133309 C6.75872809,14.5494284 6.8562698,14.9227502 7.1815205,15.2456681 C8.36877352,16.4246602 9.55464446,17.6050685 10.7411436,18.7848104 C11.0395484,19.0815266 11.3368642,19.3794093 11.6375724,19.6738344 C11.8110869,19.8437496 12.0722173,19.8144237 12.1847525,19.612725 C12.2619817,19.4743435 12.2433026,19.3367118 12.1521688,19.2094941 C11.6677689,18.5331243 11.3836038,17.780149 11.2995898,16.9559835 C11.2308625,16.2814465 11.3073797,15.6197814 11.5296023,14.977278 C11.5799855,14.83169 11.6417606,14.6899343 11.7009808,14.5395142 C12.1839568,14.8236504 12.6493844,15.0974974 13.1129274,15.3701781 C12.4628867,17.0295064 13.2456913,18.6087301 14.4948031,19.2907235 C15.8045591,20.0058334 17.4293049,19.7028271 18.3968064,18.5519945 C18.8564963,18.0052168 19.1009997,17.3704615 19.1145693,16.6552682 C19.134798,15.5887476 18.6937034,14.7388386 17.8646199,14.0765902 C18.1465652,13.6036271 18.4244481,13.1373706 18.7088645,12.6602835 Z M23.3738626,15.6992987 C23.3475192,15.5344239 23.3238562,15.3809629 23.2983923,15.2278768 C23.2041593,14.6604793 23.0348748,14.1151179 22.8063281,13.5877519 C22.7806967,13.5285586 22.7746658,13.4819038 22.804611,13.4199196 C22.9732673,13.0709666 22.8037315,12.6593629 22.4362644,12.5134 C22.0875182,12.3748518 21.6825254,12.5646369 21.5570069,12.9254203 C21.4332056,13.2812048 21.6392201,13.6808533 22.0090325,13.7773288 C22.1188874,13.8060298 22.1732913,13.8570585 22.2146701,13.9583661 C22.5189801,14.7028436 22.688474,15.4751889 22.7123882,16.2784015 C22.7136866,16.3225986 22.6974366,16.3803756 22.6675752,16.410368 C22.2107751,16.8700011 21.7504151,17.3261352 21.2905996,17.7827692 C21.2751034,17.7981403 21.2564662,17.8103872 21.2485088,17.8167605 C21.6873418,15.6465621 21.1539825,13.7656234 19.4111732,12.3501498 C17.5998878,10.8791069 15.5821691,10.7673853 13.4634325,11.7230591 C13.2564129,11.3658999 13.0416034,10.9952024 12.8162816,10.6064262 C13.0470061,10.5027026 13.2688098,10.3951466 13.4965607,10.3021702 C14.0821041,10.062981 14.6933627,9.92359977 15.3213738,9.85245119 C15.4020373,9.8433285 15.4611738,9.85649183 15.5237446,9.92043391 C15.7870946,10.1895322 16.2125674,10.1859914 16.4756662,9.91468537 C16.5290649,9.85961603 16.5791132,9.8436201 16.6503953,9.85128482 C18.1826251,10.0165761 19.512903,10.6186315 20.6345698,11.6719888 C20.7245729,11.756509 20.8100109,11.8459446 20.8969566,11.9336723 C21.0522527,12.0904658 21.2225423,12.0948813 21.3808958,11.9421701 C21.7319454,11.6037145 22.0816967,11.2639258 22.4321181,10.924762 C22.4607231,10.8970607 22.4900819,10.8700676 22.5302043,10.8322855 C22.6563091,10.9928697 22.7832096,11.146414 22.901357,11.3063317 C23.5886721,12.2370535 24.1041061,13.2545033 24.4514283,14.3564732 C24.4972884,14.5020612 24.4664637,14.6251133 24.3597081,14.7313363 C24.0519638,15.0376751 23.7439263,15.3438057 23.4356795,15.6496446 C23.4200996,15.665099 23.4013367,15.6773876 23.3738626,15.6992987 Z M22.1083835,10.3898771 C21.8114865,10.6770958 21.5141707,10.964731 21.2100282,11.2589063 C21.1833916,11.2356205 21.1584722,11.2152923 21.1352699,11.1932146 C20.1799978,10.2865284 19.063985,9.66581112 17.7816194,9.35301561 C17.428727,9.26691249 17.0642753,9.22675603 16.70464,9.1690207 C16.6424462,9.1590649 16.5988895,9.14581826 16.5598142,9.08579185 C16.2925692,8.67568774 15.7001154,8.68081144 15.4258762,9.08824956 C15.4009568,9.12536513 15.3460084,9.15935649 15.3016142,9.16423025 C12.9884224,9.41812406 11.172572,10.5019736 9.8417915,12.3961173 C9.80585728,12.4472293 9.76808029,12.4685988 9.70643092,12.4787213 C9.24037505,12.5550769 9.00265641,13.0092115 9.19686031,13.4389356 C9.21197948,13.4723854 9.21068116,13.5242889 9.19577139,13.5584469 C8.91541752,14.2004504 8.72904543,14.8677808 8.64059198,15.5621877 C8.63518928,15.6047602 8.6259335,15.6469161 8.61550504,15.7061511 C8.58124608,15.6737843 8.55523775,15.650207 8.53036022,15.6255049 C8.24368225,15.340619 7.95951717,15.0532337 7.66957246,14.7716802 C7.53567773,14.6416716 7.49186981,14.50354 7.55523632,14.3217946 C8.22814427,12.3914934 9.29762688,10.7400381 10.9647985,9.50668489 C10.9835614,9.49281341 11.0040413,9.48089978 11.0216734,9.46569531 C11.0822339,9.41345858 11.1371822,9.39846239 11.2262639,9.42249795 C11.6140854,9.52726299 11.9850286,9.28640754 12.0645195,8.89754802 C12.0717231,8.8624736 12.104223,8.82027599 12.1364717,8.8042384 C12.5684361,8.58970959 13.0182001,8.42033596 13.4823713,8.28832784 C14.5771084,7.97703195 15.6952153,7.89609419 16.8251746,7.97678202 C17.87179,8.05147137 18.8787437,8.29490951 19.8303721,8.74537836 C19.8896762,8.77345456 19.9194957,8.80407178 19.9297566,8.8748038 C19.9932488,9.31160946 20.4359348,9.55933818 20.8508536,9.39875398 C20.8821389,9.38667372 20.9330667,9.3858406 20.9584468,9.40333615 C21.3668739,9.68493126 21.7428011,10.0051832 22.0903745,10.3584268 C22.096908,10.3650501 22.1000072,10.3749642 22.1083835,10.3898771 Z M18.4443795,16.5691526 C18.4513318,17.9010225 17.3542075,18.9984103 16.0080565,19.0061999 C14.6641253,19.0138647 13.5580803,17.9202259 13.5519656,16.5775255 C13.5458928,15.2445725 14.6407974,14.1513504 15.9896287,14.1435607 C17.337413,14.1358127 18.4373853,15.2227031 18.4443795,16.5691526 Z M10.7457925,17.8342103 C10.5275905,17.6148494 10.3214923,17.4064856 10.1140958,17.1994549 C9.85409624,16.9398542 9.591877,16.6825863 9.3340553,16.4209028 C9.30323061,16.3895774 9.27625901,16.3364659 9.27755733,16.2943516 C9.30373318,15.4606885 9.47867166,14.6590588 9.80643525,13.8905042 C9.83030763,13.8344767 9.86067162,13.809733 9.91863543,13.7961948 C10.367855,13.6914298 10.5772199,13.2987795 10.4178613,12.8706383 C10.4070559,12.8416457 10.4070559,12.7955741 10.423264,12.7717468 C10.9211497,12.0407242 11.5370571,11.4272968 12.2789856,10.9405872 C12.2816241,10.9388793 12.2853934,10.9387959 12.299298,10.9351302 C12.3863694,11.084134 12.4754092,11.2354706 12.5635276,11.3873903 C12.7491039,11.7073506 12.9341358,12.0276442 13.1195446,12.3477296 C13.2324987,12.5428466 13.378204,12.5856274 13.571319,12.469407 C14.0813084,12.1624433 14.6297868,11.9587034 15.2174242,11.8648939 C16.2438109,11.7010189 17.2233324,11.8496061 18.1518004,12.3184037 C18.1605536,12.3228192 18.167841,12.3301507 18.18585,12.343564 C17.9041559,12.8165271 17.6222105,13.2900318 17.3474687,13.7514145 C15.7620077,13.1560658 14.4523773,13.5113505 13.3935744,14.8279743 C12.9357692,14.5588343 12.4701321,14.2850706 11.9869887,14.0010594 C12.113261,13.8321023 12.232581,13.669352 12.3555866,13.509351 C12.4063049,13.4433678 12.4644782,13.3829665 12.5200966,13.3207739 C12.6055765,13.2252149 12.6059115,13.1701872 12.5179188,13.0807516 C12.4406477,13.0021882 12.3625808,12.9243747 12.284137,12.846936 C12.1784284,12.7425875 12.1264955,12.7427125 12.026064,12.8508517 C11.597115,13.3124427 11.258546,13.8325606 11.0143358,14.4122049 C10.6688564,15.2321215 10.5345009,16.0866544 10.6160021,16.9713462 C10.6418848,17.2518583 10.699011,17.529496 10.7457925,17.8342103 Z M15.9939928,9.82469157 C15.7902818,9.82256711 15.6168092,9.64811145 15.6183588,9.44691258 C15.6199084,9.24575537 15.7969828,9.07125805 15.998139,9.07267435 C16.201138,9.07409066 16.3741499,9.24871295 16.3729354,9.45099488 C16.3717208,9.65444317 16.1969499,9.82677438 15.9939928,9.82469157 Z M11.3952008,8.40964701 C11.6067435,8.40806408 11.7764887,8.57123095 11.7779127,8.77755352 C11.7792948,8.9805436 11.605864,9.15229162 11.3995564,9.15224996 C11.1924949,9.15216665 11.020195,8.98075188 11.0223728,8.77692868 C11.0245088,8.57360535 11.1893957,8.41118829 11.3952008,8.40964701 Z M22.1963595,13.5099134 C21.9853193,13.5102466 21.819846,13.34608 21.8205999,13.1371331 C21.8213538,12.9340181 21.9859894,12.7690183 22.189826,12.7670605 C22.4004893,12.765061 22.5690618,12.9279363 22.5711559,13.1355085 C22.5732918,13.3430808 22.4066459,13.5095801 22.1963595,13.5099134 Z M20.5928434,8.40948456 C20.8060614,8.40923462 20.9680167,8.57056862 20.9670953,8.78222316 C20.966132,8.98642127 20.8025434,9.15042126 20.5979529,9.15221247 C20.3887555,9.15400368 20.2188847,8.98875401 20.2177957,8.78234813 C20.2166649,8.57290136 20.3808399,8.40969284 20.5928434,8.40948456 Z M10.1752426,13.1381204 C10.1755357,13.3472339 10.0099368,13.5108173 9.79877096,13.5099425 C9.5871444,13.5090678 9.42410024,13.3448595 9.42619431,13.1345796 C9.42824649,12.92984 9.59133254,12.7683393 9.79730511,12.767048 C10.0071726,12.7657567 10.1749494,12.9304648 10.1752426,13.1381204 Z"/>
    <filter id="prl-d" width="117.5%" height="121.9%" x="-8.8%" y="-7.8%" filterUnits="objectBoundingBox">
      <feOffset dy=".5" in="SourceAlpha" result="shadowOffsetOuter1"/>
      <feGaussianBlur in="shadowOffsetOuter1" result="shadowBlurOuter1" stdDeviation=".5"/>
      <feColorMatrix in="shadowBlurOuter1" values="0 0 0 0 0   0 0 0 0 0   0 0 0 0 0  0 0 0 0.204257246 0"/>
    </filter>
  </defs>
  <g fill="none" fill-rule="evenodd">
    <use fill="#000" filter="url(#prl-a)" xlink:href="#prl-b"/>
    <use fill="#1061E3" xlink:href="#prl-b"/>
    <use fill="url(#prl-c)" style="mix-blend-mode:soft-light" xlink:href="#prl-b"/>
    <circle cx="16" cy="15" r="14.5" stroke="#000" stroke-opacity=".097"/>
    <g>
      <use fill="#000" filter="url(#prl-d)" xlink:href="#prl-e"/>
      <use fill="#FFF" xlink:href="#prl-e"/>
    </g>
  </g>
</svg>
